assets/svg/upscayl.svg

<svg xmlns="http://www.w3.org/2000/svg" width="50" height="50" fill="none" viewBox="0 0 50 50"><defs><linearGradient id="c" x1="52.813" x2="52.533" y1="28.805" y2="61.792" gradientUnits="userSpaceOnUse"><stop stop-color="#87bdff"/><stop offset=".971" stop-color="#4791ce"/></linearGradient></defs><path fill="#304059" d="M38.77 50H11.22c-2.97 0-5.83-1.19-7.93-3.29C1.18 44.61 0 41.75 0 38.77V11.22c0-2.97 1.18-5.83 3.29-7.93C5.39 1.18 8.25 0 11.22 0h27.55c2.98 0 5.84 1.18 7.94 3.29 2.1 2.1 3.29 4.96 3.29 7.93v27.55c0 2.98-1.19 5.84-3.29 7.94A11.24 11.24 0 0 1 38.77 50"/><mask id="a" width="50" height="50" x="0" y="0" mask-type="alpha" maskUnits="userSpaceOnUse"><path fill="#000" d="M38.77 50H11.22c-2.97 0-5.83-1.19-7.93-3.29C1.18 44.61 0 41.75 0 38.77V11.22c0-2.97 1.18-5.83 3.29-7.93C5.39 1.18 8.25 0 11.22 0h27.55c2.98 0 5.84 1.18 7.94 3.29 2.1 2.1 3.29 4.96 3.29 7.93v27.55c0 2.98-1.19 5.84-3.29 7.94A11.24 11.24 0 0 1 38.77 50"/></mask><g mask="url(#a)"><path fill="#304059" d="M38.77 47.58H11.22c-4.86 0-8.81-3.95-8.81-8.81V11.22c0-4.86 3.95-8.81 8.81-8.81h27.55c4.86 0 8.81 3.95 8.81 8.81v27.55c0 4.86-3.95 8.81-8.81 8.81"/><mask id="b" width="45.173" height="45.173" x="2.414" y="2.414" mask-type="alpha" maskUnits="userSpaceOnUse"><path fill="#000" d="M38.77 47.58H11.22c-4.86 0-8.81-3.95-8.81-8.81V11.22c0-4.86 3.95-8.81 8.81-8.81h27.55c4.86 0 8.81 3.95 8.81 8.81v27.55c0 4.86-3.95 8.81-8.81 8.81"/></mask><g mask="url(#b)"><path fill="#4791ce" d="M24.99 9.94h-7.52V2.41h7.52z"/><path fill="#87bdff" d="M24.99 17.47h-7.52V9.94h7.52z"/><path fill="#4791ce" d="M24.99 25h-7.52v-7.53h7.52z"/><path fill="#87bdff" d="M24.99 32.52h-7.52V25h7.52z"/><path fill="#4791ce" d="M24.99 40.05h-7.52v-7.53h7.52z"/><path fill="#87bdff" d="M24.99 47.58h-7.52v-7.53h7.52zM17.47 9.94H9.94V2.41h7.53z"/><path fill="#4791ce" d="M17.47 17.47H9.94V9.94h7.53z"/><path fill="#87bdff" d="M17.47 25H9.94v-7.53h7.53z"/><path fill="#4791ce" d="M17.47 32.52H9.94V25h7.53z"/><path fill="#87bdff" d="M17.47 40.05H9.94v-7.53h7.53z"/><path fill="#4791ce" d="M17.47 47.58H9.94v-7.53h7.53zM9.94 9.94H2.41V2.41h7.53z"/><path fill="#87bdff" d="M9.94 17.47H2.41V9.94h7.53z"/><path fill="#4791ce" d="M9.94 25H2.41v-7.53h7.53z"/><path fill="#87bdff" d="M9.94 32.52H2.41V25h7.53z"/><path fill="#4791ce" d="M9.94 40.05H2.41v-7.53h7.53z"/><path fill="#87bdff" d="M9.94 47.58H2.41v-7.53h7.53z"/><path fill="url(#c)" d="M47.58 47.58H25V2.41h22.58z"/><path fill="#304059" d="M30.6 25a5.606 5.606 0 1 1-11.211-.011A5.606 5.606 0 0 1 30.6 25"/><path fill="#87bdff" d="m28.98 25-1.22-.83-1.23-.83v3.31l1.23-.83zM21.01 25l1.22-.83 1.23-.83v3.31l-1.23-.83z"/></g><path fill="#304059" d="M26.2 48.28h-2.41V1.71h2.41z"/></g></svg>

<svg width="50.000000" height="50.000000" viewBox="0 0 50 50" fill="none" xmlns="http://www.w3.org/2000/svg" xmlns:xlink="http://www.w3.org/1999/xlink">
	<defs>
		<linearGradient x1="52.812752" y1="28.804750" x2="52.533302" y2="61.791885" id="paint_linear_87_66_0" gradientUnits="userSpaceOnUse">
			<stop stop-color="#87BDFF"/>
			<stop offset="0.970833" stop-color="#4791CE"/>
		</linearGradient>
	</defs>
	<path id="path" d="M38.77 50L11.22 50C8.25 50 5.39 48.81 3.29 46.71C1.18 44.61 0 41.75 0 38.77L0 11.22C0 8.25 1.18 5.39 3.29 3.29C5.39 1.18 8.25 0 11.22 0L38.77 0C41.75 0 44.61 1.18 46.71 3.29C48.81 5.39 50 8.25 50 11.22L50 38.77C50 41.75 48.81 44.61 46.71 46.71C44.61 48.81 41.75 50 38.77 50Z" fill="#304059" fill-opacity="1.000000" fill-rule="nonzero"/>
	<mask id="mask87_40" mask-type="alpha" maskUnits="userSpaceOnUse" x="0.000000" y="0.000000" width="50.000000" height="50.000000">
		<path id="path" d="M38.77 50L11.22 50C8.25 50 5.39 48.81 3.29 46.71C1.18 44.61 0 41.75 0 38.77L0 11.22C0 8.25 1.18 5.39 3.29 3.29C5.39 1.18 8.25 0 11.22 0L38.77 0C41.75 0 44.61 1.18 46.71 3.29C48.81 5.39 50 8.25 50 11.22L50 38.77C50 41.75 48.81 44.61 46.71 46.71C44.61 48.81 41.75 50 38.77 50Z" fill="#000000" fill-opacity="1.000000" fill-rule="nonzero"/>
	</mask>
	<g mask="url(#mask87_40)">
		<path id="path" d="M38.77 47.58L11.22 47.58C6.36 47.58 2.41 43.63 2.41 38.77L2.41 11.22C2.41 6.36 6.36 2.41 11.22 2.41L38.77 2.41C43.63 2.41 47.58 6.36 47.58 11.22L47.58 38.77C47.58 43.63 43.63 47.58 38.77 47.58Z" fill="#304059" fill-opacity="1.000000" fill-rule="nonzero"/>
		<mask id="mask87_45" mask-type="alpha" maskUnits="userSpaceOnUse" x="2.413696" y="2.413696" width="45.172668" height="45.172607">
			<path id="path" d="M38.77 47.58L11.22 47.58C6.36 47.58 2.41 43.63 2.41 38.77L2.41 11.22C2.41 6.36 6.36 2.41 11.22 2.41L38.77 2.41C43.63 2.41 47.58 6.36 47.58 11.22L47.58 38.77C47.58 43.63 43.63 47.58 38.77 47.58Z" fill="#000000" fill-opacity="1.000000" fill-rule="nonzero"/>
		</mask>
		<g mask="url(#mask87_45)">
			<path id="path" d="M24.99 9.94L17.47 9.94L17.47 2.41L24.99 2.41L24.99 9.94Z" fill="#4791CE" fill-opacity="1.000000" fill-rule="nonzero"/>
			<path id="path" d="M24.99 17.47L17.47 17.47L17.47 9.94L24.99 9.94L24.99 17.47Z" fill="#87BDFF" fill-opacity="1.000000" fill-rule="nonzero"/>
			<path id="path" d="M24.99 25L17.47 25L17.47 17.47L24.99 17.47L24.99 25Z" fill="#4791CE" fill-opacity="1.000000" fill-rule="nonzero"/>
			<path id="path" d="M24.99 32.52L17.47 32.52L17.47 25L24.99 25L24.99 32.52Z" fill="#87BDFF" fill-opacity="1.000000" fill-rule="nonzero"/>
			<path id="path" d="M24.99 40.05L17.47 40.05L17.47 32.52L24.99 32.52L24.99 40.05Z" fill="#4791CE" fill-opacity="1.000000" fill-rule="nonzero"/>
			<path id="path" d="M24.99 47.58L17.47 47.58L17.47 40.05L24.99 40.05L24.99 47.58Z" fill="#87BDFF" fill-opacity="1.000000" fill-rule="nonzero"/>
			<path id="path" d="M17.47 9.94L9.94 9.94L9.94 2.41L17.47 2.41L17.47 9.94Z" fill="#87BDFF" fill-opacity="1.000000" fill-rule="nonzero"/>
			<path id="path" d="M17.47 17.47L9.94 17.47L9.94 9.94L17.47 9.94L17.47 17.47Z" fill="#4791CE" fill-opacity="1.000000" fill-rule="nonzero"/>
			<path id="path" d="M17.47 25L9.94 25L9.94 17.47L17.47 17.47L17.47 25Z" fill="#87BDFF" fill-opacity="1.000000" fill-rule="nonzero"/>
			<path id="path" d="M17.47 32.52L9.94 32.52L9.94 25L17.47 25L17.47 32.52Z" fill="#4791CE" fill-opacity="1.000000" fill-rule="nonzero"/>
			<path id="path" d="M17.47 40.05L9.94 40.05L9.94 32.52L17.47 32.52L17.47 40.05Z" fill="#87BDFF" fill-opacity="1.000000" fill-rule="nonzero"/>
			<path id="path" d="M17.47 47.58L9.94 47.58L9.94 40.05L17.47 40.05L17.47 47.58Z" fill="#4791CE" fill-opacity="1.000000" fill-rule="nonzero"/>
			<path id="path" d="M9.94 9.94L2.41 9.94L2.41 2.41L9.94 2.41L9.94 9.94Z" fill="#4791CE" fill-opacity="1.000000" fill-rule="nonzero"/>
			<path id="path" d="M9.94 17.47L2.41 17.47L2.41 9.94L9.94 9.94L9.94 17.47Z" fill="#87BDFF" fill-opacity="1.000000" fill-rule="nonzero"/>
			<path id="path" d="M9.94 25L2.41 25L2.41 17.47L9.94 17.47L9.94 25Z" fill="#4791CE" fill-opacity="1.000000" fill-rule="nonzero"/>
			<path id="path" d="M9.94 32.52L2.41 32.52L2.41 25L9.94 25L9.94 32.52Z" fill="#87BDFF" fill-opacity="1.000000" fill-rule="nonzero"/>
			<path id="path" d="M9.94 40.05L2.41 40.05L2.41 32.52L9.94 32.52L9.94 40.05Z" fill="#4791CE" fill-opacity="1.000000" fill-rule="nonzero"/>
			<path id="path" d="M9.94 47.58L2.41 47.58L2.41 40.05L9.94 40.05L9.94 47.58Z" fill="#87BDFF" fill-opacity="1.000000" fill-rule="nonzero"/>
			<path id="path" d="M47.58 47.58L25 47.58L25 2.41L47.58 2.41L47.58 47.58Z" fill="url(#paint_linear_87_66_0)" fill-opacity="1.000000" fill-rule="nonzero"/>
			<path id="path" d="M30.6 25C30.6 28.09 28.09 30.6 24.99 30.6C21.9 30.6 19.39 28.09 19.39 25C19.39 21.9 21.9 19.39 24.99 19.39C28.09 19.39 30.6 21.9 30.6 25Z" fill="#304059" fill-opacity="1.000000" fill-rule="nonzero"/>
			<path id="path" d="M28.98 25L27.76 24.17L26.53 23.34L26.53 25L26.53 26.65L27.76 25.82L28.98 25Z" fill="#87BDFF" fill-opacity="1.000000" fill-rule="nonzero"/>
			<path id="path" d="M21.01 25L22.23 24.17L23.46 23.34L23.46 25L23.46 26.65L22.23 25.82L21.01 25Z" fill="#87BDFF" fill-opacity="1.000000" fill-rule="nonzero"/>
		</g>
		<path id="path" d="M26.2 48.28L23.79 48.28L23.79 1.71L26.2 1.71L26.2 48.28Z" fill="#304059" fill-opacity="1.000000" fill-rule="nonzero"/>
	</g>
</svg>
